/* XPM */
static char *b7cc82d892a341a5eb8ed20aecbcad02yHcqPYkCyCvo95nh[] = {
/* columns rows colors chars-per-pixel */
"32 32 127 2 ",
"   c None",
".  c #CC7719",
"X  c #C67B18",
"o  c #F76500",
"O  c #F76700",
"+  c #F76800",
"@  c #F76A00",
"#  c #F86C00",
"$  c #F87000",
"%  c #F87100",
"&  c #F97200",
"*  c #F97300",
"=  c #F97600",
"-  c #F97700",
";  c #F97900",
":  c #FA7900",
">  c #FA7B00",
",  c #FA7C00",
"<  c #FA7D00",
"1  c #FA7E00",
"2  c #FA7F00",
"3  c #F47E0E",
"4  c #E7611E",
"5  c #E7621E",
"6  c #E8601E",
"7  c #E8611E",
"8  c #E9611E",
"9  c #E8611F",
"0  c #E9611F",
"q  c #E8621E",
"w  c #E9621E",
"e  c #E9631E",
"r  c #E8621F",
"t  c #E9621F",
"y  c #E9631F",
"u  c #EA621F",
"i  c #EA651D",
"p  c #EB671D",
"a  c #EA641E",
"s  c #EA651E",
"d  c #EC691B",
"f  c #EC6A1B",
"g  c #EC6B1B",
"h  c #ED6D19",
"j  c #ED6E19",
"k  c #EE6F18",
"l  c #EC6C1A",
"z  c #ED6D1A",
"x  c #EB681C",
"c  c #EB691C",
"v  c #EF7217",
"b  c #EF7416",
"n  c #EE7018",
"m  c #EE7118",
"M  c #F07715",
"N  c #F07416",
"B  c #F17913",
"V  c #F27B12",
"C  c #F37D10",
"Z  c #F37F11",
"A  c #F27C12",
"S  c #F37C12",
"D  c #F27D12",
"F  c #78B509",
"G  c #54CF02",
"H  c #5EC804",
"J  c #4BD400",
"K  c #4BD500",
"L  c #4BD600",
"P  c #4CD500",
"I  c #4CD600",
"U  c #9F9810",
"Y  c #B48915",
"T  c #FA8000",
"R  c #FB8000",
"E  c #FB8100",
"W  c #FA8001",
"Q  c #FB8200",
"!  c #FB8300",
"~  c #FB8400",
"^  c #FB8600",
"/  c #FC8700",
"(  c #FB8901",
")  c #FC8900",
"_  c #FC8B00",
"`  c #FC8C00",
"'  c #FC8D00",
"]  c #FC8E00",
"[  c #F6860D",
"{  c #F5840E",
"}  c #F5850E",
"|  c #F7880A",
" . c #F78A0B",
".. c #F7880C",
"X. c #F98E09",
"o. c #F98F09",
"O. c #F88C0A",
"+. c #FD9200",
"@. c #FD9500",
"#. c #FE9600",
"$. c #FE9700",
"%. c #FB9004",
"&. c #FA9107",
"*. c #FB9406",
"=. c #FB9506",
"-. c #FC9704",
";. c #FE9800",
":. c #FE9900",
">. c #FE9A00",
",. c #FE9B00",
"<. c #FD9903",
"1. c #FD9B02",
"2. c #FD9A03",
"3. c #FD9B03",
"4. c #FE9C00",
"5. c #FF9C00",
"6. c #FF9D00",
"7. c #FE9D01",
"8. c #FF9E00",
"9. c #FF9F00",
"0. c #FE9E01",
"q. c #FE9C02",
"w. c #FE9D02",
"e. c #FC9804",
"r. c #F99008",
"t. c #FA9108",
"y. c #FFA000",
/* pixels */
"                                                L               ",
"                                              L     L L         ",
"                                              P     P P         ",
"                                              L   L P           ",
"                                              L   P     L P     ",
"                                            L L L L   P P P     ",
"                                      9 4 9 U F P   L L P   P P ",
"                                9 9 a n b n d 9 Y G P     L P P ",
"                              9 a [ 8.y.y.y.y.X.a . H L L L     ",
"                            9 a %.y.y.y.y.y.y.y.e.d X           ",
"                            9 | 2 - > E >.y.y.y.y.*.9           ",
"                          9 [ 8.~ ` _ 2 O E y.y.y.y.v 9         ",
"                        9 Z y.y.y.y.y.y.8.% E y.y.y.b 9         ",
"                      9 M y.y.y.y.y.y.y.y.8.O >.y.>.a           ",
"                    9 k 8.% @ % E >.y.y.y.y.E E >.k 9           ",
"                  9 d >.y.>.>.+.2 O ` y.y.y.>.%.k 9             ",
"                9 a *.y.y.y.y.y.y.$.@ +.y.y.*.c 9               ",
"                9 X._ E ~ >.y.y.y.y.` % y.| a 9                 ",
"              9 [ y._ ~ 2 O 2 y.y.y.y.E Z 9 9                   ",
"            9 B y.y.y.y.y.8.% 2 y.y.>.n 9                       ",
"          9 k 8.y.y.y.y.y.y.8.O >.r.c 9                         ",
"        9 a e./ O @ > >.y.y.y.$.[ 9 9                           ",
"        9 X.y.8.8.>.E # 8.y.8.M 9                               ",
"      9 Z y.y.y.y.y.y.% ` *.d 9                                 ",
"    9 k ( - E >.y.y.y.$.3 a 9                                   ",
"    9 *.$.` 2 @ >.y.>.M 9                                       ",
"  9 Z y.y.y.y.~ > r.c 9                                         ",
"4 a 8.y.y.y.y.8.Z 9 9                                           ",
"9 Z y.y.y.y.-.n 9                                               ",
"9 X.y.y.8...a 9                                                 ",
"9 v [ B c 9 9                                                   ",
"  9 9 9 9                                                       "
};
