/* XPM */
static char *_ce0e546b603476c9e2a72e11753bff4[] = {
/* columns rows colors chars-per-pixel */
"32 32 14 1 ",
"  c None",
". c #4E4E4E",
"X c gray35",
"o c gray40",
"O c #6B6B6A",
"+ c gray48",
"@ c #D0262B",
"# c #3A9532",
"$ c #36AB2B",
"% c #ACACAC",
"& c #B1B0AE",
"* c gray75",
"= c #D8D8D8",
"- c #FAE7E8",
/* pixels */
"        &&&&&&&&&&&&&&          ",
"        &--@-@-@-@---&          ",
"        &-@@@-@@-@@-@&          ",
"        &--@-@-@-@@-@&          ",
"        &&&&&&&&&&&&&&          ",
"                                ",
"      &&&&&&&&&&&&&&&&&&&       ",
"      &OOOOOOOOOOOOOOOOO&       ",
"      &O#$#$##$##$#$$$$#&       ",
"      &O##$$$$**+#$$$$$#&       ",
"      &O#####$**+$$$$$$#&       ",
"      &O###$**+++$$$$$$#&       ",
"      &O###*+**+$$$$$$$$&       ",
"      &O##*++**+++++++*+&       ",
"      &O##*+*++**+******&       ",
"      &O##+#**+$$$++++*+&       ",
"      &O####*+*+$$$$$$$$&       ",
"      &O##**+$$*+$$$$$$$&       ",
"      &==#++#$$++$$$$$$$&       ",
"      &==X##$$$$$$$$$$$$&       ",
"      &ooooo$$$$$$$$$$$$&       ",
"      &%%...$$$$$$$$$$$$&       ",
"      &==X##$$$$$$$$$$$$&       ",
"      &X=X##$$$$$$$$$$$$&       ",
"      &XXX#$$$$$$$$$$$$$&       ",
"      &O#$$$$$$$$$$$$$$$&       ",
"      &O#$$$#$$$$$$$$$$$&       ",
"      &O##$$$$$$$$$$$$$$&       ",
"      &O#$$$$$$$$$$$$$$#&       ",
"      &O###$$$$$$$$$$$$#&       ",
"      &O#$$$$$$$$$$$$$$#&       ",
"      &O#$$$$$$$$###$###&       "
};
