/* XPM */
static char *b90b16c849ae46d599348a05a632e947TUf0vYt3ToTJ7iPd[] = {
/* columns rows colors chars-per-pixel */
"24 32 106 2 ",
"   c None",
".  c #2D1705",
"X  c #2E1804",
"o  c #29170D",
"O  c #2A180D",
"+  c #311700",
"@  c #311800",
"#  c #331F04",
"$  c #332507",
"%  c #372705",
"&  c #382704",
"*  c #382A05",
"=  c #3D2B07",
"-  c #3A2B08",
";  c #3D2E0A",
":  c #352F2B",
">  c #3A312D",
",  c #4E2B0A",
"<  c #473500",
"1  c #4B3506",
"2  c #473509",
"3  c #443709",
"4  c #45380F",
"5  c #52310C",
"6  c #58310D",
"7  c #543E08",
"8  c #4C3C1D",
"9  c #6B3D15",
"0  c #5D4703",
"q  c #584208",
"w  c #5E4808",
"e  c #624A0A",
"r  c #745A04",
"t  c #785D04",
"y  c #734A19",
"u  c #684621",
"i  c #774E23",
"p  c #7B5025",
"a  c #775132",
"s  c #363F48",
"d  c #87501F",
"f  c #896E06",
"g  c #8D6F06",
"h  c #8D7102",
"j  c #8E7204",
"k  c #947802",
"l  c #957902",
"z  c #967A04",
"x  c #9C7D02",
"c  c #9C7E02",
"v  c #9D7E02",
"b  c #9F7F03",
"n  c #997B04",
"m  c #9A7C04",
"M  c #8B5621",
"N  c #8D5A30",
"B  c #805E38",
"V  c #BA5933",
"C  c #936225",
"Z  c #896737",
"A  c #88623C",
"S  c #9C6D31",
"D  c #A46229",
"F  c #A8682B",
"G  c #AC6F2D",
"H  c #B0752F",
"J  c #A4773D",
"K  c #A8753F",
"L  c #B47B31",
"P  c #B87F3B",
"I  c #A47E5B",
"U  c #9F8000",
"Y  c #9F8001",
"T  c #A38300",
"R  c #A38301",
"E  c #A18102",
"W  c #A28302",
"Q  c #A48401",
"!  c #A68602",
"~  c #A88700",
"^  c #A98800",
"/  c #A98803",
"(  c #AE8C00",
")  c #AF8D01",
"_  c #B18F00",
"`  c #BC853D",
"'  c #AC814A",
"]  c #C5904A",
"[  c #C9924C",
"{  c #CD944E",
"}  c #CD9A56",
"|  c #D59E5A",
" . c #DAA05C",
".. c #CD9A6A",
"X. c #C39574",
"o. c #D5A462",
"O. c #E2AA68",
"+. c #E6AC6A",
"@. c #E2AE77",
"#. c #CEA582",
"$. c #DAAE82",
"%. c #DEB084",
"&. c #D0A991",
"*. c #D6B39D",
"=. c #B0C3D8",
"-. c #F5E7D6",
/* pixels */
"                                                ",
"                                                ",
"                                                ",
"            +                     +             ",
"          , { p                 p { ,           ",
"          y ..$.J +         + J $...y           ",
"            I #.@.G 6     6 G @.#.I             ",
"            a &.*.{ D @ @ D { *.&.a             ",
"              N X.L H | | H L X.N               ",
"              @ d ` O.+.+.O.` d @               ",
"                @  .+.+.+.+. .@                 ",
"                9 > : [ [ : > 9                 ",
"              + L =.@ | | @ =.L +               ",
"              + +.-.s %.%.s -.+.+               ",
"                K +.H V V H +.K                 ",
"                  i P M M P i                   ",
"                    y y y y                     ",
"                u J o.o.o.o.' u                 ",
"              u o.` o.O.O.o.} ] u               ",
"              ' ` L o.+.+.o.L F S               ",
"            + o.y L o.+.+.o.L , G u             ",
"            + ] @ L o.+.+.o.L @ D C & 8 *       ",
"            + ] @ L o.O.O.o.` # 9 D X   O 4     ",
"            + } P y o.o.o.o.o.- . +       ; 3   ",
"            + G F y } ] ] o.A -     o 7 g c z = ",
"              + + d L 5 @ o.Z 3 % e h R m k c = ",
"                  9 F + + ] B f / R k c U R ! < ",
"                  9 D 9 + ] o.1 n c U R / ) t   ",
"                  + D 9 + ` o.+ 0 ~ / ) _ j w   ",
"                  + D 9 + L ` +   q ! r 7       ",
"                    +   + F L +     $           ",
"                          + +                   "
};
