/* XPM */
static char *_c67fc0faf504cfad5195def66cd28e5GOfeInQ54raH3A7w[] = {
/* columns rows colors chars-per-pixel */
"32 32 169 2 ",
"   c #27311D",
".  c #262624",
"X  c #252921",
"o  c #2A2C26",
"O  c #2E2E2B",
"+  c #302F2D",
"@  c #30312D",
"#  c #32392D",
"$  c #353533",
"%  c #363A32",
"&  c #393A36",
"*  c #3D3D39",
"=  c #394A27",
"-  c #3F4F30",
";  c #3F413C",
":  c #425B25",
">  c #42423E",
",  c #444C3D",
"<  c #425333",
"1  c #4D5732",
"2  c #4B5933",
"3  c #4F5F3C",
"4  c #4B6D27",
"5  c #456129",
"6  c #4A642D",
"7  c #4F6B33",
"8  c #506133",
"9  c #53653D",
"0  c #5C603F",
"q  c #566C3B",
"w  c #5B693E",
"e  c #547235",
"r  c #5A7236",
"t  c #577A34",
"y  c #5D7B3F",
"u  c #454542",
"i  c #484744",
"p  c #464A44",
"a  c #4A4A46",
"s  c #4D4D4A",
"d  c #504F4C",
"f  c #4A5145",
"g  c #4F5C47",
"h  c #4F514C",
"j  c #525640",
"k  c #515B44",
"l  c #5C5A42",
"z  c #52524D",
"x  c #535B4B",
"c  c #5C5848",
"v  c #555552",
"b  c #585753",
"n  c #545D52",
"m  c #5A5A55",
"M  c #5E5D5A",
"N  c #605F5B",
"B  c #556441",
"V  c #5E6245",
"C  c #5C6C44",
"Z  c #54664B",
"A  c #58634A",
"S  c #5C7242",
"D  c #5E7E43",
"F  c #566052",
"G  c #5B6155",
"H  c #5F6159",
"J  c #5E695B",
"K  c #626D4E",
"L  c #647647",
"P  c #62744A",
"I  c #657A48",
"U  c #606754",
"Y  c #636955",
"T  c #63625D",
"R  c #636B5B",
"E  c #696B5F",
"W  c #677750",
"Q  c #697755",
"!  c #697952",
"~  c #67715B",
"^  c #6A745C",
"/  c #6E7D5B",
"(  c #666562",
")  c #686762",
"_  c #666A62",
"`  c #6B6B65",
"'  c #6E6D69",
"]  c #706F6A",
"[  c #677066",
"{  c #6C7365",
"}  c #697B60",
"|  c #6F726A",
" . c #737A65",
".. c #73726D",
"X. c #79766F",
"o. c #737A6B",
"O. c #767571",
"+. c #787772",
"@. c #767A71",
"#. c #7A7B75",
"$. c #7E7D79",
"%. c #807D75",
"&. c #807F7A",
"*. c #817F7B",
"=. c #628042",
"-. c #6A8D44",
";. c #698949",
":. c #768663",
">. c #798867",
",. c #77826C",
"<. c #78806A",
"1. c #798B6B",
"2. c #7E8375",
"3. c #7E8379",
"4. c #7F827A",
"5. c #818476",
"6. c #82807B",
"7. c #82817D",
"8. c #83837D",
"9. c #84827D",
"0. c #85837F",
"q. c #85847F",
"w. c #838A7E",
"e. c #848380",
"r. c #868581",
"t. c #898781",
"y. c #878981",
"u. c #8B8983",
"i. c #8A8E83",
"p. c #8A8985",
"a. c #8D8B85",
"s. c #8B8E85",
"d. c #8F8E8A",
"f. c #918F8A",
"g. c #908F8B",
"h. c #8C9285",
"j. c #8D9287",
"k. c #8F938A",
"l. c #91968B",
"z. c #92918E",
"x. c #95938F",
"c. c #93948D",
"v. c #91978E",
"b. c #969A8E",
"n. c #939290",
"m. c #969591",
"M. c #989690",
"N. c #989793",
"B. c #989794",
"V. c #969892",
"C. c #999D93",
"Z. c #9A9996",
"A. c #9D9B96",
"S. c #9E9D9A",
"D. c #A09F9B",
"F. c #9DA095",
"G. c #A0A39A",
"H. c #A2A19C",
"J. c #A5A39F",
"K. c #A4A99D",
"L. c #A4A3A0",
"P. c #A6A6A2",
"I. c #A7A7A4",
"U. c #A8A7A3",
"Y. c #A8A7A5",
"T. c #A7ABA4",
"R. c #AAABA6",
"E. c #ADACA7",
"W. c #ACACA8",
/* pixels */
"' a.t.T $.$...T { i.j.) ` $.r.' b b ` ` ( M m u z M r.p.r.B.0.O.",
"&.+.( v 7.+.$.s.l.G.C.' b ` ....) v T ( E T v a d v v.v.Z.d.&.` ",
"+.T T ` 0.&.q.R.W.d.$.) m ) O.+...T T T T ( M u m T p.r.r.T T +.",
"M m M M +.0.O.+.+...` ' +.+.O.+.m z a u a b s > #.&.p.d.+.> > T ",
"+ > m v ) ( M a ` ] 7.H.W.J.f.&.' ` m m ' ..] $.r.M.d.d.O.m i s ",
"> u v v s M s * ..O.a.E.A.$.] ..$.u.] z m s ..$...' &.+.' +.p.T ",
"M m b s i ( s & ..$.a.A.a.' m M ' a.U.` ( b 6.f.#.&.0.` ` n.I.r.",
"m z s a u v u & ] ..' %...z * > s ' U.q.' T O.0.x.d.r.M T O.L.v.",
"&...( ( r.B.e...| +.q.4.E i @ @ O v +.) O.' $.$.$.+.+.( v s ` +.",
"' z ` ] Z.B.+.G n [ v.v...u * a * i z a ` T O.#.' b m v a M v a ",
"' v N ..Z.R.z.( m 4.K.v.m a s T m s * > a z +.p.( s & > u m ( z ",
"T ) m ' f.m.#...' 7.v.@.a u & s b u . * M M ' $.m $ . * a s u > ",
"d.x.t.p.D.m.r.( u m #.| T z & s ..` M +.) s v r.` v u s +.O.' ` ",
"&.m.f.r.&.] @.a O & ` ..z u * > e.r.7.7.( u ( O.T s z z #.0.+.z ",
"r.n.7.7.r...&.> @ * H m s z a s H.W.Y.e.M s M M s s m s ..M.t.a ",
"$.+.] N E ..O.* @ s ( v u s a d +.d.m.T a a s & % , n a ] 0.a.) ",
"..+.f.t.f.r.r...T ..Z.x...+.` T m ' ' a ' O.` z ..j.b.2.q.v.A.+.",
"7.+.a.u.M.d.&.+.U m Z.d.$.( m z M v u & ' ' +.#.b.G.F.5.E X.&...",
"f.a.a.&.v.x.5.9 3 ( d.7.` i u m m u u i ..O.$.M.R.k.6.+.E ..&.+.",
"' ] ` m / W I 9 y o.r.e.T O O a u , > > ` #.' ' $.] ) +.+.+...] ",
"0.#.] E =.L Y V ^ >.v.P.f.' m m k 3 O.' ' ` ( z i s M ..P.P.d.q.",
"p.f...M q > C B 0 S  .j.+.$.d.U 7 C #.' v m s u u s m ) p...( ..",
"$.f.R.O.b v o.+.#.Q e ;.~ Z.W.$.9 7 | ( h ( s * u z m m +.M h M ",
"m ` D.r.T T ....d.:.S 6 x O.S.>.C B _ A S z u * u s a a T a $ > ",
"u O.H.f.( b ) ' 7... .8 2.#.Z.K. .K Q B e z.0.' #.6.a.v.d.' v a ",
"v ( O.' v u v M ( x 2 -.w $.o.<.R 8 t T <.v...n J { v.T.V.( m m ",
"#.' v M & & v ) G 9 : 5 ! C C P _ z c ..z.U.a.b ) 7.K.T.#.| O.+.",
"..M $ h a ; a m x -   = G q 1 q M q C Y t.v.$.) ..7.k.4.M N z M ",
"y.#.' k.v.#.4.P.k.#.E #.w.4.o.q C l / { 6.+.E z a H 4._ #.{ v ] ",
"d.w.q.v.y.R j.v.s.{ ..#.@.4.o.g 9 4 9 P T p f # X % ) ) ` T z H ",
"R.W.T.l.4...w.o.o.{ #.o.| v.1.< { D r e G , x o X & n h ` ..) { ",
"4.p.k.R G R ` , g Z } R J o.,.x ` ~ j 6 , f x o X p F , n R T ` "
};
